; generated by Slic3r 0.9.10b on 2015-11-09 at 00:09:41

; Perfil feito por rsilva em 20/0/13
; Baseado no MM_025_FAST, porém bem modificado e com a velocidade reduzida.

; layer_height = 0.25
; perimeters = 2
; top_solid_layers = 4
; bottom_solid_layers = 2
; fill_density = 0.12
; perimeter_speed = 80
; infill_speed = 80
; travel_speed = 100
; nozzle_diameter = 0.35
; filament_diameter = 2.88
; extrusion_multiplier = 1.1
; perimeters extrusion width = 0.39mm
; infill extrusion width = 0.47mm
; solid infill extrusion width = 0.39mm
; top infill extrusion width = 0.39mm
; first layer extrusion width = 0.48mm

G21 ; set units to millimeters
M107
M140 S75 ; set bed temp, don't wait
M104 S185 ; set heater temp, don't wait
G0 X10 Y10 Z10 F7000
G28 X0 Y0
G0 Z3 F300
G0 Z0 F75
M190 S75 ; wait for bed temp
M109 S185 ; set heater temp and wait
M908 P3 S110 ; set motor current to a safe level. In the next host release we'll remove this command from startgcode
G92 E0 ; reset extruder length
G90 ; use absolute coordinates
M83 ; use relative distances for extrusion
G1 Z0.300 F6000.000
G1 F1800.000 E-2.00000
G1 X49.530 Y76.895 F6000.000
G1 F1800.000 E2.00000
G1 X50.550 Y76.375 F1200.000 E0.02622
G1 X52.390 Y75.555 E0.04614
G1 X53.620 Y75.085 E0.03016
G1 X54.660 Y74.815 E0.02461
G1 X56.710 Y74.385 E0.04797
G1 X57.820 Y74.205 E0.02575
G1 X58.950 Y74.155 E0.02590
G1 X141.040 Y74.155 E1.88003
G1 X142.170 Y74.205 E0.02590
G1 X143.280 Y74.385 E0.02575
G1 X145.330 Y74.815 E0.04797
G1 X146.450 Y75.115 E0.02655
G1 X147.540 Y75.535 E0.02675
G1 X149.440 Y76.385 E0.04767
G1 X150.440 Y76.895 E0.02571
G1 X151.380 Y77.505 E0.02566
G1 X153.080 Y78.735 E0.04806
G1 X153.980 Y79.455 E0.02640
G1 X154.800 Y80.275 E0.02656
G1 X156.140 Y81.765 E0.04589
G1 X156.130 Y81.775 E0.00032
G1 X156.750 Y82.485 E0.02159
G1 X157.540 Y83.685 E0.03290
G1 X158.580 Y85.495 E0.04781
G1 X159.090 Y86.495 E0.02571
G1 X159.500 Y87.535 E0.02560
G1 X160.150 Y89.525 E0.04794
G1 X160.440 Y90.635 E0.02627
G1 X160.620 Y91.765 E0.02621
G1 X160.840 Y93.845 E0.04790
G1 X160.900 Y94.995 E0.02637
G1 X160.900 Y104.995 E0.22902
G1 X160.840 Y106.145 E0.02637
G1 X160.620 Y108.225 E0.04790
G1 X160.440 Y109.355 E0.02621
G1 X160.150 Y110.465 E0.02627
G1 X159.500 Y112.455 E0.04794
G1 X159.090 Y113.495 E0.02560
G1 X158.580 Y114.495 E0.02571
G1 X157.540 Y116.305 E0.04781
G1 X156.910 Y117.285 E0.02668
G1 X156.180 Y118.185 E0.02654
G1 X154.780 Y119.735 E0.04783
G1 X153.970 Y120.545 E0.02623
G1 X153.080 Y121.255 E0.02607
G1 X151.380 Y122.485 E0.04806
G1 X150.440 Y123.095 E0.02566
G1 X149.440 Y123.605 E0.02571
G1 X147.540 Y124.455 E0.04767
G1 X146.480 Y124.865 E0.02603
G1 X145.380 Y125.165 E0.02611
G1 X143.330 Y125.605 E0.04802
G1 X142.190 Y125.785 E0.02643
G1 X141.040 Y125.845 E0.02637
G1 X58.950 Y125.845 E1.88003
G1 X57.800 Y125.785 E0.02637
G1 X56.660 Y125.605 E0.02643
G1 X54.610 Y125.165 E0.04802
G1 X53.520 Y124.875 E0.02583
G1 X52.470 Y124.465 E0.02582
G1 X50.560 Y123.615 E0.04788
G1 X49.530 Y123.095 E0.02642
G1 X48.570 Y122.475 E0.02617
G1 X46.880 Y121.245 E0.04787
G1 X46.010 Y120.535 E0.02572
G1 X45.210 Y119.735 E0.02591
G1 X43.810 Y118.185 E0.04783
G1 X43.080 Y117.285 E0.02654
G1 X42.450 Y116.305 E0.02668
G1 X41.410 Y114.495 E0.04781
G1 X40.900 Y113.495 E0.02571
G1 X40.490 Y112.455 E0.02560
G1 X39.840 Y110.465 E0.04794
G1 X39.540 Y109.325 E0.02700
G1 X39.360 Y108.175 E0.02666
G1 X39.150 Y106.095 E0.04788
G1 X39.100 Y104.995 E0.02522
G1 X39.100 Y94.995 E0.22902
G1 X39.150 Y93.895 E0.02522
G1 X39.360 Y91.815 E0.04788
G1 X39.540 Y90.665 E0.02666
G1 X39.840 Y89.525 E0.02700
G1 X40.490 Y87.535 E0.04794
G1 X40.900 Y86.495 E0.02560
G1 X41.410 Y85.495 E0.02571
G1 X42.450 Y83.685 E0.04781
G1 X43.080 Y82.705 E0.02668
G1 X43.810 Y81.805 E0.02654
G1 X45.210 Y80.255 E0.04783
G1 X46.010 Y79.455 E0.02591
G1 X46.880 Y78.745 E0.02572
G1 X48.570 Y77.515 E0.04787
G1 X49.473 Y76.932 E0.02462
G1 X49.760 Y77.285 F6000.000
G1 X50.740 Y76.785 F1200.000 E0.02520
G1 X52.710 Y75.905 E0.04941
G1 X53.750 Y75.515 E0.02544
G1 X54.750 Y75.255 E0.02366
G1 X56.800 Y74.825 E0.04797
G1 X57.870 Y74.655 E0.02481
G1 X58.950 Y74.605 E0.02476
G1 X141.040 Y74.605 E1.88003
G1 X142.120 Y74.655 E0.02476
G1 X143.190 Y74.825 E0.02481
G1 X145.240 Y75.255 E0.04797
G1 X146.320 Y75.545 E0.02561
G1 X147.360 Y75.945 E0.02552
G1 X149.260 Y76.795 E0.04767
G1 X150.220 Y77.285 E0.02468
G1 X151.120 Y77.865 E0.02452
G1 X152.820 Y79.095 E0.04806
G1 X153.680 Y79.795 E0.02540
G1 X154.460 Y80.575 E0.02526
G1 X155.800 Y82.065 E0.04589
G1 X155.790 Y82.075 E0.00032
G1 X156.390 Y82.765 E0.02094
G1 X157.150 Y83.905 E0.03138
G1 X158.190 Y85.715 E0.04781
G1 X158.680 Y86.675 E0.02468
G1 X159.070 Y87.675 E0.02458
G1 X159.720 Y89.665 E0.04794
G1 X160.000 Y90.735 E0.02533
G1 X160.170 Y91.815 E0.02504
G1 X160.390 Y93.895 E0.04790
G1 X160.450 Y94.995 E0.02523
G1 X160.450 Y104.995 E0.22902
G1 X160.390 Y106.095 E0.02523
G1 X160.170 Y108.175 E0.04790
G1 X160.000 Y109.255 E0.02504
G1 X159.720 Y110.325 E0.02533
G1 X159.070 Y112.315 E0.04794
G1 X158.680 Y113.315 E0.02458
G1 X158.190 Y114.275 E0.02468
G1 X157.150 Y116.085 E0.04781
G1 X156.550 Y117.015 E0.02535
G1 X155.850 Y117.885 E0.02557
G1 X154.450 Y119.435 E0.04783
G1 X153.670 Y120.205 E0.02510
G1 X152.820 Y120.895 E0.02507
G1 X151.120 Y122.125 E0.04806
G1 X150.220 Y122.705 E0.02452
G1 X149.260 Y123.195 E0.02468
G1 X147.360 Y124.045 E0.04767
G1 X146.340 Y124.435 E0.02501
G1 X145.280 Y124.725 E0.02517
G1 X143.230 Y125.165 E0.04802
G1 X142.140 Y125.335 E0.02527
G1 X141.040 Y125.395 E0.02523
G1 X58.950 Y125.395 E1.88003
G1 X57.850 Y125.335 E0.02523
G1 X56.760 Y125.165 E0.02527
G1 X54.710 Y124.725 E0.04802
G1 X53.660 Y124.445 E0.02489
G1 X52.650 Y124.055 E0.02480
G1 X50.740 Y123.205 E0.04788
G1 X49.760 Y122.705 E0.02520
G1 X48.840 Y122.105 E0.02515
G1 X47.150 Y120.875 E0.04787
G1 X46.310 Y120.195 E0.02475
G1 X45.540 Y119.435 E0.02478
G1 X44.140 Y117.885 E0.04783
G1 X43.440 Y117.015 E0.02557
G1 X42.840 Y116.085 E0.02535
G1 X41.800 Y114.275 E0.04781
G1 X41.310 Y113.315 E0.02468
G1 X40.920 Y112.315 E0.02458
G1 X40.270 Y110.325 E0.04794
G1 X39.980 Y109.235 E0.02583
G1 X39.810 Y108.125 E0.02572
G1 X39.600 Y106.045 E0.04788
G1 X39.550 Y104.995 E0.02407
G1 X39.550 Y94.995 E0.22902
G1 X39.600 Y93.945 E0.02407
G1 X39.810 Y91.865 E0.04788
G1 X39.980 Y90.755 E0.02572
G1 X40.270 Y89.665 E0.02583
G1 X40.920 Y87.675 E0.04794
G1 X41.310 Y86.675 E0.02458
G1 X41.800 Y85.715 E0.02468
G1 X42.840 Y83.905 E0.04781
G1 X43.440 Y82.975 E0.02535
G1 X44.140 Y82.105 E0.02557
G1 X45.540 Y80.555 E0.04783
G1 X46.310 Y79.795 E0.02478
G1 X47.150 Y79.115 E0.02475
G1 X48.840 Y77.885 E0.04787
G1 X49.703 Y77.322 E0.02360
G1 F1800.000 E-2.00000
G1 X50.886 Y106.937 F6000.000
G1 F1800.000 E2.00000
G1 X50.678 Y104.964 F1200.000 E0.04543
G1 X50.678 Y95.036 E0.22739
G1 X50.886 Y93.063 E0.04543
G1 X51.487 Y91.210 E0.04461
G1 X52.461 Y89.523 E0.04461
G1 X53.765 Y88.075 E0.04461
G1 X55.341 Y86.930 E0.04461
G1 X57.121 Y86.138 E0.04461
G1 X59.026 Y85.733 E0.04461
G1 X140.974 Y85.733 E1.87678
G1 X142.879 Y86.138 E0.04461
G1 X144.659 Y86.930 E0.04461
G1 X146.235 Y88.075 E0.04461
G1 X147.539 Y89.523 E0.04461
G1 X148.513 Y91.210 E0.04461
G1 X149.115 Y93.063 E0.04461
G1 X149.322 Y95.036 E0.04543
G1 X149.322 Y104.964 E0.22739
G1 X149.115 Y106.937 E0.04543
G1 X148.513 Y108.790 E0.04461
G1 X147.539 Y110.477 E0.04461
G1 X146.235 Y111.925 E0.04461
G1 X144.659 Y113.070 E0.04462
G1 X142.879 Y113.862 E0.04461
G1 X140.974 Y114.267 E0.04461
G1 X59.026 Y114.267 E1.87678
G1 X57.121 Y113.862 E0.04461
G1 X55.341 Y113.070 E0.04461
G1 X53.765 Y111.925 E0.04462
G1 X52.461 Y110.477 E0.04461
G1 X51.487 Y108.790 E0.04461
G1 X50.906 Y107.002 E0.04306
G1 X50.458 Y107.084 F6000.000
G1 X50.226 Y104.988 F1200.000 E0.04829
G1 X50.226 Y95.012 E0.22848
G1 X50.441 Y92.968 E0.04706
G1 X51.072 Y91.025 E0.04679
G1 X52.094 Y89.256 E0.04679
G1 X53.461 Y87.737 E0.04679
G1 X55.114 Y86.537 E0.04679
G1 X56.930 Y85.728 E0.04554
G1 X58.978 Y85.281 E0.04801
G1 X141.022 Y85.281 E1.87896
G1 X143.020 Y85.706 E0.04679
G1 X144.886 Y86.537 E0.04679
G1 X146.539 Y87.737 E0.04679
G1 X147.906 Y89.256 E0.04679
G1 X148.928 Y91.025 E0.04679
G1 X149.559 Y92.968 E0.04679
G1 X149.774 Y95.012 E0.04706
G1 X149.774 Y104.988 E0.22848
G1 X149.559 Y107.032 E0.04706
G1 X148.928 Y108.975 E0.04679
G1 X147.906 Y110.744 E0.04679
G1 X146.539 Y112.262 E0.04679
G1 X144.886 Y113.463 E0.04679
G1 X143.020 Y114.294 E0.04679
G1 X141.022 Y114.719 E0.04679
G1 X58.978 Y114.719 E1.87896
G1 X56.980 Y114.294 E0.04679
G1 X55.114 Y113.463 E0.04679
G1 X53.461 Y112.262 E0.04679
G1 X52.094 Y110.744 E0.04679
G1 X51.072 Y108.975 E0.04679
G1 X50.479 Y107.148 E0.04399
G1 X50.803 Y106.792 F6000.000
G1 X54.752 Y112.237
G1 X52.632 Y110.116 F1200.000 E0.06875
G1 X51.777 Y108.622 E0.03946
G1 X56.288 Y113.133 E0.14624
G1 X57.377 Y113.582 E0.02700
G1 X51.469 Y107.674 E0.19154
G1 X51.196 Y106.761 E0.02185
G1 X58.190 Y113.754 E0.22674
G1 X59.002 Y113.927 E0.01905
G1 X51.121 Y106.046 E0.25553
G1 X51.046 Y105.331 E0.01649
G1 X59.655 Y113.939 E0.27912
G1 X60.295 Y113.939 E0.01467
G1 X51.006 Y104.650 E0.30118
G1 X51.006 Y104.010 E0.01467
G1 X60.935 Y113.939 E0.32193
G1 X61.575 Y113.939 E0.01467
G1 X51.006 Y103.370 E0.34268
G1 X51.006 Y102.730 E0.01467
G1 X62.215 Y113.939 E0.36343
G1 X62.855 Y113.939 E0.01467
G1 X51.006 Y102.090 E0.38419
G1 X51.006 Y101.450 E0.01467
G1 X63.495 Y113.939 E0.40494
G1 X64.135 Y113.939 E0.01467
G1 X51.006 Y100.810 E0.42569
G1 X51.006 Y100.170 E0.01467
G1 X64.775 Y113.939 E0.44644
G1 X65.415 Y113.939 E0.01467
G1 X51.006 Y99.530 E0.46719
G1 X51.006 Y98.890 E0.01467
G1 X66.055 Y113.939 E0.48795
G1 X66.695 Y113.939 E0.01467
G1 X51.006 Y98.250 E0.50870
G1 X51.006 Y97.610 E0.01467
G1 X67.335 Y113.939 E0.52945
G1 X67.975 Y113.939 E0.01467
G1 X51.006 Y96.970 E0.55020
G1 X51.006 Y96.330 E0.01467
G1 X68.615 Y113.939 E0.57095
G1 X69.256 Y113.939 E0.01467
G1 X51.006 Y95.690 E0.59171
G1 X51.006 Y95.050 E0.01467
G1 X69.896 Y113.939 E0.61245
G1 X70.536 Y113.939 E0.01467
G1 X51.067 Y94.471 E0.63123
G1 X51.128 Y93.892 E0.01335
G1 X71.176 Y113.939 E0.65001
G1 X71.816 Y113.939 E0.01467
G1 X51.189 Y93.312 E0.66878
G1 X51.316 Y92.799 E0.01212
G1 X72.456 Y113.939 E0.68542
G1 X73.096 Y113.939 E0.01467
G1 X51.473 Y92.316 E0.70108
G1 X51.630 Y91.833 E0.01165
G1 X73.736 Y113.939 E0.71675
G1 X74.376 Y113.939 E0.01467
G1 X51.786 Y91.350 E0.73241
G1 X52.020 Y90.943 E0.01075
G1 X75.016 Y113.939 E0.74560
G1 X75.656 Y113.939 E0.01467
G1 X52.254 Y90.538 E0.75875
G1 X52.488 Y90.132 E0.01074
G1 X76.296 Y113.939 E0.77191
G1 X76.936 Y113.939 E0.01467
G1 X52.723 Y89.726 E0.78507
G1 X53.024 Y89.388 E0.01039
G1 X77.576 Y113.939 E0.79604
G1 X78.216 Y113.939 E0.01467
G1 X53.328 Y89.051 E0.80696
G1 X53.631 Y88.714 E0.01039
G1 X78.856 Y113.939 E0.81788
G1 X79.496 Y113.939 E0.01467
G1 X53.934 Y88.377 E0.82880
G1 X54.293 Y88.096 E0.01045
G1 X80.136 Y113.939 E0.83790
G1 X80.776 Y113.939 E0.01467
G1 X54.664 Y87.827 E0.84663
G1 X55.035 Y87.558 E0.01051
G1 X81.416 Y113.939 E0.85537
G1 X82.056 Y113.939 E0.01467
G1 X55.405 Y87.288 E0.86410
G1 X55.829 Y87.072 E0.01090
G1 X82.696 Y113.939 E0.87112
G1 X83.337 Y113.939 E0.01467
G1 X56.272 Y86.875 E0.87752
G1 X56.715 Y86.677 E0.01111
G1 X83.977 Y113.939 E0.88391
G1 X84.617 Y113.939 E0.01467
G1 X57.157 Y86.480 E0.89030
G1 X57.673 Y86.356 E0.01216
G1 X85.257 Y113.939 E0.89434
G1 X85.897 Y113.939 E0.01467
G1 X58.201 Y86.243 E0.89798
G1 X58.728 Y86.131 E0.01237
G1 X86.537 Y113.939 E0.90162
G1 X87.177 Y113.939 E0.01467
G1 X59.298 Y86.061 E0.90391
G1 X59.938 Y86.061 E0.01467
G1 X87.817 Y113.939 E0.90391
G1 X88.457 Y113.939 E0.01467
G1 X60.578 Y86.061 E0.90391
G1 X61.218 Y86.061 E0.01467
G1 X89.097 Y113.939 E0.90391
G1 X89.737 Y113.939 E0.01467
G1 X61.858 Y86.061 E0.90391
G1 X62.498 Y86.061 E0.01467
G1 X90.377 Y113.939 E0.90391
G1 X91.017 Y113.939 E0.01467
G1 X63.138 Y86.061 E0.90391
G1 X63.778 Y86.061 E0.01467
G1 X91.657 Y113.939 E0.90391
G1 X92.297 Y113.939 E0.01467
G1 X64.418 Y86.061 E0.90391
G1 X65.058 Y86.061 E0.01467
G1 X92.937 Y113.939 E0.90391
G1 X93.577 Y113.939 E0.01467
G1 X65.698 Y86.061 E0.90391
G1 X66.338 Y86.061 E0.01467
G1 X94.217 Y113.939 E0.90391
G1 X94.857 Y113.939 E0.01467
G1 X66.979 Y86.061 E0.90391
G1 X67.619 Y86.061 E0.01467
G1 X95.497 Y113.939 E0.90391
G1 X96.137 Y113.939 E0.01467
G1 X68.259 Y86.061 E0.90391
G1 X68.899 Y86.061 E0.01467
G1 X96.777 Y113.939 E0.90391
G1 X97.418 Y113.939 E0.01467
G1 X69.539 Y86.061 E0.90391
G1 X70.179 Y86.061 E0.01467
G1 X98.058 Y113.939 E0.90391
G1 X98.698 Y113.939 E0.01467
G1 X70.819 Y86.061 E0.90391
G1 X71.459 Y86.061 E0.01467
G1 X99.338 Y113.939 E0.90391
G1 X99.978 Y113.939 E0.01467
G1 X72.099 Y86.061 E0.90391
G1 X72.739 Y86.061 E0.01467
G1 X100.618 Y113.939 E0.90391
G1 X101.258 Y113.939 E0.01467
G1 X73.379 Y86.061 E0.90391
G1 X74.019 Y86.061 E0.01467
G1 X101.898 Y113.939 E0.90391
G1 X102.538 Y113.939 E0.01467
G1 X74.659 Y86.061 E0.90391
G1 X75.299 Y86.061 E0.01467
G1 X103.178 Y113.939 E0.90391
G1 X103.818 Y113.939 E0.01467
G1 X75.939 Y86.061 E0.90391
G1 X76.579 Y86.061 E0.01467
G1 X104.458 Y113.939 E0.90391
G1 X105.098 Y113.939 E0.01467
G1 X77.219 Y86.061 E0.90391
G1 X77.859 Y86.061 E0.01467
G1 X105.738 Y113.939 E0.90391
G1 X106.378 Y113.939 E0.01467
G1 X78.499 Y86.061 E0.90391
G1 X79.139 Y86.061 E0.01467
G1 X107.018 Y113.939 E0.90391
G1 X107.658 Y113.939 E0.01467
G1 X79.779 Y86.061 E0.90391
G1 X80.419 Y86.061 E0.01467
G1 X108.298 Y113.939 E0.90391
G1 X108.938 Y113.939 E0.01467
G1 X81.060 Y86.061 E0.90391
G1 X81.700 Y86.061 E0.01467
G1 X109.578 Y113.939 E0.90391
G1 X110.218 Y113.939 E0.01467
G1 X82.340 Y86.061 E0.90391
G1 X82.980 Y86.061 E0.01467
G1 X110.858 Y113.939 E0.90391
G1 X111.499 Y113.939 E0.01467
G1 X83.620 Y86.061 E0.90391
G1 X84.260 Y86.061 E0.01467
G1 X112.139 Y113.939 E0.90391
G1 X112.779 Y113.939 E0.01467
G1 X84.900 Y86.061 E0.90391
G1 X85.540 Y86.061 E0.01467
G1 X113.419 Y113.939 E0.90391
G1 X114.059 Y113.939 E0.01467
G1 X86.180 Y86.061 E0.90391
G1 X86.820 Y86.061 E0.01467
G1 X114.699 Y113.939 E0.90391
G1 X115.339 Y113.939 E0.01467
G1 X87.460 Y86.061 E0.90391
G1 X88.100 Y86.061 E0.01467
G1 X115.979 Y113.939 E0.90391
G1 X116.619 Y113.939 E0.01467
G1 X88.740 Y86.061 E0.90391
G1 X89.380 Y86.061 E0.01467
G1 X117.259 Y113.939 E0.90391
G1 X117.899 Y113.939 E0.01467
G1 X90.020 Y86.061 E0.90391
G1 X90.660 Y86.061 E0.01467
G1 X118.539 Y113.939 E0.90391
G1 X119.179 Y113.939 E0.01467
G1 X91.300 Y86.061 E0.90391
G1 X91.940 Y86.061 E0.01467
G1 X119.819 Y113.939 E0.90391
G1 X120.459 Y113.939 E0.01467
G1 X92.580 Y86.061 E0.90391
G1 X93.220 Y86.061 E0.01467
G1 X121.099 Y113.939 E0.90391
G1 X121.739 Y113.939 E0.01467
G1 X93.860 Y86.061 E0.90391
G1 X94.500 Y86.061 E0.01467
G1 X122.379 Y113.939 E0.90391
G1 X123.019 Y113.939 E0.01467
G1 X95.141 Y86.061 E0.90391
G1 X95.781 Y86.061 E0.01467
G1 X123.659 Y113.939 E0.90391
G1 X124.299 Y113.939 E0.01467
G1 X96.421 Y86.061 E0.90391
G1 X97.061 Y86.061 E0.01467
G1 X124.939 Y113.939 E0.90391
G1 X125.580 Y113.939 E0.01467
G1 X97.701 Y86.061 E0.90391
G1 X98.341 Y86.061 E0.01467
G1 X126.220 Y113.939 E0.90391
G1 X126.860 Y113.939 E0.01467
G1 X98.981 Y86.061 E0.90391
G1 X99.621 Y86.061 E0.01467
G1 X127.500 Y113.939 E0.90391
G1 X128.140 Y113.939 E0.01467
G1 X100.261 Y86.061 E0.90391
G1 X100.901 Y86.061 E0.01467
G1 X128.780 Y113.939 E0.90391
G1 X129.420 Y113.939 E0.01467
G1 X101.541 Y86.061 E0.90391
G1 X102.181 Y86.061 E0.01467
G1 X130.060 Y113.939 E0.90391
G1 X130.700 Y113.939 E0.01467
G1 X102.821 Y86.061 E0.90391
G1 X103.461 Y86.061 E0.01467
G1 X131.340 Y113.939 E0.90391
G1 X131.980 Y113.939 E0.01467
G1 X104.101 Y86.061 E0.90391
G1 X104.741 Y86.061 E0.01467
G1 X132.620 Y113.939 E0.90391
G1 X133.260 Y113.939 E0.01467
G1 X105.381 Y86.061 E0.90391
G1 X106.021 Y86.061 E0.01467
G1 X133.900 Y113.939 E0.90391
G1 X134.540 Y113.939 E0.01467
G1 X106.661 Y86.061 E0.90391
G1 X107.301 Y86.061 E0.01467
G1 X135.180 Y113.939 E0.90391
G1 X135.820 Y113.939 E0.01467
G1 X107.941 Y86.061 E0.90391
G1 X108.581 Y86.061 E0.01467
G1 X136.460 Y113.939 E0.90391
G1 X137.100 Y113.939 E0.01467
G1 X109.222 Y86.061 E0.90391
G1 X109.862 Y86.061 E0.01467
